X:1
T:Come little children
T:Come little children
L:1/8
Q:1/4=190
M:4/4
K:C
V:1 alto nm="Viola" snm="Vla."
V:1
 vA4 ^F2 A2 | A4 ^F2 A2 | G4 E2 G2 | ^F4 z2 uA2 | vA4 ^F2 A2 | A4 ^F2 A2 | G4 E2 G2 | ^F4 z2 uF2 | %8
 E4 E2 E2 | G4 G2 G2 | ^F4 F2 F2 | B4 z2 uB2 | vA4 A2 A2 | d4 A2 ^F2 | G4 E2 E2 | vD4 z4 |] %16

